!!!!SEGMENT: pl-kk--kk-i-262--001_anonim--rorate-caeli.krn
!!!id: 16xx:777
!!!COM: Anonim
!!!COM-rism: pe30004985
!!!CDT:
!!!CNT:
!!!OTL: Rorate caeli
!!!PDT:
!!!SMS-siglum: PL-Kk
!!!SMS-shelfmark: Kk.I.262
!!!NIFC-rismID: 1001143736
!!!URL-scan: http://repozytorium.nifc.pl/skany/pl-kk-nut--i-262
!!!ONB-nifc: UWAGA: utwory w zbiorze: 1. Rorate caeli, 2. Alleluia Ave Maria
!!!SMS-variant:
!!!SMS-altvar:
**kern	**fba	**text	**kern	**text	**kern	**text	**dynam	**kern	**text	**dynam	**kern	**text
*part5	*	*part5	*part4	*part4	*part3	*part3	*part3	*part2	*part2	*part2	*part1	*part1
*staff5	*	*staff5	*staff4	*staff4	*staff3	*staff3	*	*staff2	*staff2	*	*staff1	*staff1
*I"Baſso Ripieno	*	*	*I"Baſso.	*	*I"Tenore	*	*	*I"Alto.	*	*	*I"Canto	*
*I'B rip	*	*	*I'B	*	*I'T	*	*	*I'A	*	*	*I'C	*
*clefF4	*	*	*clefF4	*	*clefC4	*	*	*clefC3	*	*	*clefC1	*
*k[b-]	*	*	*k[b-]	*	*k[e-b-]	*	*	*k[b-]	*	*	*k[b-]	*
*M3/2	*	*	*M3/2	*	*M3/2	*	*	*M3/2	*	*	*M3/2	*
=1	=1	=1	=1	=1	=1	=1	=1	=1	=1	=1	=1	=1
*2\right	*	*	*2\right	*	*2\right	*	*	*2\right	*	*	*2\right	*
!LO:TX:t=P:problem:przy kluczu BB- B-	!	!	!LO:TX:t=P:problem:przy kluczu BB- B-	!	!	!	!	!LO:TX:a:t=P:problem:przy kluczu B-, od drugiej linijki B- e-	!	!	!LO:TX:a:t=P:problem:przy kluczu b-, od drugiej linijki b- ee-	!
!LO:TX:a:t=P:problem:w niektórych linijkach przy kluczu bemol b-, w niektórych b- i e-	!	!	!	!	!	!	!	!	!	!	!	!
2G\	.	Ro-	2G\	Ro-	2B-\	Ro-	.	2g\	Ro-	.	2dd\	Ro-
2B-\	.	-ra-	2B-\	-ra-	2G/	-ra-	.	2g\	-ra-	.	2b-\	-ra-
2G\	.	-te	2G\	-te	2B-\	-te	.	2g\	-te	.	2dd\	-te
=2	=2	=2	=2	=2	=2	=2	=2	=2	=2	=2	=2	=2
2F#X\	.	cae-	2F#X\	cae-	2A/	cae-	.	2d\	Cae-	.	2dd\	cae-
2D,<\	.	-li	2D\	-li	2F#X,</	-li	.	2f#X,<\	-li	.	2dd,<\	-li
2F#\	.	Ro-	2F#\	Ro-	2A/	Ro-	.	2d\	Ro-	.	2dd\	Ro-
=3	=3	=3	=3	=3	=3	=3	=3	=3	=3	=3	=3	=3
4G\	.	-ra-	(4G\	-ra-	2B-\	-ra-	.	2g\	-ra-	.	2dd\	-ra-
4F\	.	.	4F\	.	.	.	.	.	.	.	.	.
4E-X\	.	.	4E-X\	.	1c	-te	.	1g	-te	.	1ee-X	-te
4D\	.	.	4D\)	.	.	.	.	.	.	.	.	.
2C,</	.	-te	2C,</	-te	.	.	.	.	.	.	.	.
=4	=4	=4	=4	=4	=4	=4	=4	=4	=4	=4	=4	=4
4F\	.	cae-	4F\	cae-	2A\	cae-	.	2fn\	cae-	.	2cc\	cae-
4E-X\	.	.	4E-X\	.	.	.	.	.	.	.	.	.
4D\	.	.	4D/	.	1B-	-li	.	1f	-li	.	1dd	-li
4C\	.	.	4C/	.	.	.	.	.	.	.	.	.
2BB-,</	.	-li	2BB-/	-li	.	.	.	.	.	.	.	.
=5	=5	=5	=5	=5	=5	=5	=5	=5	=5	=5	=5	=5
(2E-X\	.	de-	2E-X\	de-	1B-	de-	.	(2g\	de-	.	4ee-X\	de-
.	.	.	.	.	.	.	.	.	.	.	4dd\	.
2F\)	.	-su-	2F\	-su-	.	.	.	2.f\)	.	.	2.cc\	.
2FF/	.	.	2FF/	.	2A\	-su-	.	.	.	.	.	.
.	.	.	.	.	.	.	.	4f\	-su-	.	4cc\	-su-
=6	=6	=6	=6	=6	=6	=6	=6	=6	=6	=6	=6	=6
1.BB-	.	-per	1.BB-	-per	1B-,<	-per	.	1f,<	-per	.	1b-,<	-per
!	!	!	!	!	!	!	!LO:DY:a:t=For.	!	!	!LO:DY:a:t=For	!	!
.	.	.	.	.	2B-\	Ro-	f	2f\	Ro-	f	2dd\	Ro-
=7	=7	=7	=7	=7	=7	=7	=7	=7	=7	=7	=7	=7
!LO:N:vis=0	!	!	!LO:N:vis=0	!	!	!	!	!	!	!	!	!
0.r	.	.	0.r	.	2.A/	-ra-	.	2.f\	-ra-	.	2.cc\	-ra-
.	.	.	.	.	4G/	-te	.	4f\	-te	.	4b-\	-te
.	.	.	.	.	4A/	cae-	.	4f\	cae-	.	4cc\	cae-
.	.	.	.	.	4F/	-li	.	4f\	-li	.	4a\	-li
=8	=8	=8	=8	=8	=8	=8	=8	=8	=8	=8	=8	=8
.	.	.	.	.	1B-	cae-	.	(2d\	cae-	.	2b-\	cae-
.	.	.	.	.	.	.	.	2en\)	.	.	1cc	-li
.	.	.	.	.	2A\	-li	.	2f\	-li	.	.	.
!	!	!	!	!	!	!	!	!LO:LB:g=original	!	!	!LO:LB:g=original	!
=9	=9	=9	=9	=9	=9	=9	=9	=9	=9	=9	=9	=9
*	*	*	*	*	*	*	*	*k[b-e-]	*	*	*k[b-e-]	*
!	!	!	!	!	!	!	!	!	!	!	!LO:TX:t=P:problem:kolejność znaków b- ee-	!
1.r	.	.	1.r	.	2G/	de-	.	1f	de-	.	(4b-\	de-
.	.	.	.	.	.	.	.	.	.	.	4a\)	.
.	.	.	.	.	2c\	-su-	.	.	.	.	2.g\	.
.	.	.	.	.	2C/	.	.	2en\	-su-	.	.	.
.	.	.	.	.	.	.	.	.	.	.	4g\	-su-
!LO:LB:g=original	!	!	!	!	!	!	!	!	!	!	!	!
=10	=10	=10	=10	=10	=10	=10	=10	=10	=10	=10	=10	=10
2r	.	.	2r	.	1F,<	-per.	.	1f,<	-per	.	1a,<	-per
2r	.	.	2r	.	.	.	.	.	.	.	.	.
!	!	!	!	!	!LO:LB:g=original	!	!	!	!	!	!	!
2F\	.	Ro-	2F\	Ro-	2A\	Ro-	.	2f\	Ro-	.	2cc\	Ro-
=11	=11	=11	=11	=11	=11	=11	=11	=11	=11	=11	=11	=11
2.D/	.	-ra-	2.D/	-ra-	2.B-\	-ra-	.	2.f\	-ra-	.	2.dd\	-ra-
4C/	.	-te	4C/	-te	4B-\	-te	.	4e-X,<\	-te	.	4dd\	-te
4D/	.	cae-	4D/	cae-	4B-\	cae-	.	4f\	cae-	.	4dd\	cae-
4BB-,</	.	-li	4BB-/	-li	4B-\	-li	.	4d\	-li	.	4dd\	-li
=12	=12	=12	=12	=12	=12	=12	=12	=12	=12	=12	=12	=12
*	*	*ij	*	*	*	*	*	*	*	*	*	*
1E-X	.	cae-	1E-X	cae-	(2G/	cae-	.	2e-X\	cae-	.	(2b-\	cae-
.	.	.	.	.	2A/)	.	.	1f,<	-li	.	2cc\)	.
2D\	.	-li	2D\	-li	2B-\	-li	.	.	.	.	2dd\	-li
*	*	*Xij	*	*	*	*	*	*	*	*	*	*
!	!	!	!LO:LB:g=original	!	!	!	!	!	!	!	!	!
=13	=13	=13	=13	=13	=13	=13	=13	=13	=13	=13	=13	=13
2C/	.	de-	2C/	de-	1B-	de-	.	(2g\	de-	.	4ee-X\	de-
.	.	.	.	.	.	.	.	.	.	.	4dd\	.
2F\	.	.	2F\	-su-	.	.	.	2.f\)	.	.	2.cc\	.
2FF/	.	-su-	2FF/	.	2A\	-su-	.	.	.	.	.	.
.	.	.	.	.	.	.	.	4f\	-su-	.	4cc\	-su-
=14	=14	=14	=14	=14	=14	=14	=14	=14	=14	=14	=14	=14
2BB-,</	.	-per	2BB-,</	-per	2B-,<\	-per	.	2f,<\	-per	.	2dd,<\	-per.
(2E-X\	.	et	(2E-X\	et	(2B-\	et	.	(2g\	et	.	1b-	et
2D\)	.	.	2D\)	.	2d\)	.	.	2f\)	.	.	.	.
=15	=15	=15	=15	=15	=15	=15	=15	=15	=15	=15	=15	=15
2E-X\	.	nu-	2E-X\	nu-	2B-\	nu-	.	2g\	nu-	.	2b-\	nu-
2BB-,</	.	-bes	2BB-,</	-bes	2d,<\	-bes	.	2f,<\	-bes	.	2b-,<\	-bes
*	*	*ij	*	*	*	*	*	*	*	*	*	*ij
2B-\	.	et	2B-\	et	2d\	et	.	2f\	et	.	2b-\	et
=16	=16	=16	=16	=16	=16	=16	=16	=16	=16	=16	=16	=16
2B-\	.	nu-	2B-\	nu-	2G/	nu-	.	2e-X\	nu-	.	2cc\	nu-
2B-,<\	.	-bes	2B-,<\	-bes	2G,</	-bes	.	2e-,<\	-bes	.	2cc,<\	-bes
*	*	*Xij	*	*	*	*	*	*	*	*	*	*Xij
2A\	.	plu-	2A\	plu-	2A/	plu-	.	2f\	plu-	.	2cc\	plu-
=17	=17	=17	=17	=17	=17	=17	=17	=17	=17	=17	=17	=17
2G,<\	.	-ant	2G,<\	-ant	2B-\	-ant	.	2f,<\	-ant	.	4b-\	-ant
.	.	.	.	.	.	.	.	.	.	.	4a\	.
2c\	.	Ju-	2c\	Ju-	1c	Ju-	.	(2f\	Ju-	.	1g	Ju-
2C/	.	.	2C/	.	.	.	.	2en\)	.	.	.	.
!LO:LB:g=original	!	!	!	!	!	!	!	!LO:LB:g=original	!	!	!LO:LB:g=original	!
=18	=18	=18	=18	=18	=18	=18	=18	=18	=18	=18	=18	=18
2F,<\	.	-stum	2F,<\	-stum	2c,<\	-stum	.	2f,<\	-stum	.	2a,<\	-stum
2B-X\	.	nu-	2B-\	nu-	2B-X\	nu-	.	2f\	nu-	.	2dd\	nu-
2A\	.	-bes	2A\	-bes	2c\	-bes	.	2f\	-bes	.	2cc\	-bes
=19	=19	=19	=19	=19	=19	=19	=19	=19	=19	=19	=19	=19
1B-	.	plu-	1B-	plu-	1B-	plu-	.	1.f	plu-	.	1dd	plu-
2F\	.	-ant	2F\	-ant	2c\	-ant	.	.	.	.	2cc\	-ant
!	!	!	!	!	!LO:LB:g=original	!	!	!	!	!	!	!
=20	=20	=20	=20	=20	=20	=20	=20	=20	=20	=20	=20	=20
2r	.	.	2r	.	2r	.	.	2f,<\	-ant,	.	2r	.
*	*	*ij	*	*ij	*	*	*	*	*	*	*	*ij
2G\	.	nu-	2G\	nu-	2B-\	nu-	.	2d\	nu-	.	2dd\	nu-
2F#X\	.	-bes	2F#X\	-bes	2A\	-bes	.	2f#X\	-bes	.	2dd\	-bes
=21	=21	=21	=21	=21	=21	=21	=21	=21	=21	=21	=21	=21
1G	.	plu-	1G	plu-	1B-	plu-	.	(2d\	plu-	.	1.dd	plu-
.	.	.	.	.	.	.	.	2g\)	.	.	.	.
2D\	.	-ant	2D\	-ant	2A\	-ant	.	2f#X\	-ant	.	.	.
*	*	*Xij	*	*Xij	*	*	*	*	*	*	*	*
=22	=22	=22	=22	=22	=22	=22	=22	=22	=22	=22	=22	=22
2r	.	.	2r	.	2r	.	.	2r	.	.	2dd,<\	-ant
*	*	*	*	*	*	*ij	*	*	*	*	*	*Xij
2E-X\	.	nu-	2E-X\	nu-	2B-\	nu-	.	2g\	nu-	.	2b-\	nu-
2D\	.	-bes	2D\	-bes	2B-\	-bes	.	2fn\	-bes	.	2dd\	-bes
!	!	!	!LO:LB:g=original	!	!	!	!	!	!	!	!	!
=23	=23	=23	=23	=23	=23	=23	=23	=23	=23	=23	=23	=23
!LO:SIC:v:s=1E-	!	!	!	!	!	!	!	!	!	!	!	!
1E	.	plu-	1E-X	plu-	1B-	plu-	.	1g	plu-	.	1b-	plu-
2BB-/	.	-ant	2BB-/	-ant	2B-\	-ant	.	2f\	-ant	.	2dd\	-ant
*	*	*	*	*	*	*Xij	*	*	*	*	*	*
=24	=24	=24	=24	=24	=24	=24	=24	=24	=24	=24	=24	=24
(2D\	.	Ju-	(2D\	Ju-	(1B-	Ju-	.	(2f\	Ju-	.	2dd\	Ju-
2E-X\	.	.	2E-X\	.	.	.	.	2g\)	.	.	1cc	.
2F\)	.	.	2F\)	.	2A\)	.	.	2f\	.	.	.	.
=25	=25	=25	=25	=25	=25	=25	=25	=25	=25	=25	=25	=25
1BB-,<	.	-stu(m)	1BB-,<	-stum	1B-,<	-stum	.	1f,<	-stum	.	1dd,<	-stum:
2G\	.	a-	2G\	a-	2B-\	a-	.	2g\	a-	.	2dd\	a-
=26	=26	=26	=26	=26	=26	=26	=26	=26	=26	=26	=26	=26
1G	.	-pe-	1G	-pe-	1B-	-pe-	.	1g	-pe-	.	1dd	-pe-
2A\	.	-ri-	2A\	-ri-	2A\	-ri-	.	2f#X\	-ri-	.	2cc\	-ri-
!LO:LB:g=original	!	!	!	!	!	!	!	!	!	!	!	!
=27	=27	=27	=27	=27	=27	=27	=27	=27	=27	=27	=27	=27
1B-	.	-a-	1B-	-a-	1G	-a-	.	1g	-a-	.	1b-	-a-
2A\	.	-tur	2A\	-tur	2A/	-tur	.	2f#X,<\	-tur	.	2cc\	-tur
!	!	!	!	!	!	!	!	!LO:LB:g=original	!	!	!LO:LB:g=original	!
=28	=28	=28	=28	=28	=28	=28	=28	=28	=28	=28	=28	=28
2G\	.	ter-	2G\	ter-	2B-\	ter-	.	2g\	ter-	.	2dd\	ter-
2A,<\	.	-ra	2A,<\	-ra	2A,<\	-ra	.	2f#X,<\	-ra	.	2cc,<\	-ra
2D/	.	et	2D/	et	2A\	et	.	2f#\	et	.	2cc\	et
=29	=29	=29	=29	=29	=29	=29	=29	=29	=29	=29	=29	=29
4G\	.	ger-	(4G\	ger-	1.B-	ger-	.	1.g	ger-	.	(4b-\	ger-
4F#X\	.	.	4F#X\	.	.	.	.	.	.	.	4a\	.
4G\	.	.	4G\	.	.	.	.	.	.	.	4b-\	.
4A\	.	.	4A\	.	.	.	.	.	.	.	4cc\	.
4B-\	.	.	4B-\	.	.	.	.	.	.	.	4dd\	.
4c\	.	.	4c\)	.	.	.	.	.	.	.	4ee-\)	.
=30	=30	=30	=30	=30	=30	=30	=30	=30	=30	=30	=30	=30
2.d\	.	.	2.d\	.	2.A\	.	.	2.f#X\	.	.	2.dd\	.
4d\	.	-mi-	4d\	-mi-	4A\	-mi-	.	4f#\	-mi-	.	4dd\	-mi-
!	!	!	!	!	!LO:SIC:v:t=custos d	!	!	!	!	!	!	!
2D/	.	-net	2D/	-net	2A\	-net	.	2f#\	-net	.	2dd\	-net,
!	!	!	!	!	!LO:LB:g=original	!	!	!	!	!	!	!
=31	=31	=31	=31	=31	=31	=31	=31	=31	=31	=31	=31	=31
!LO:N:vis=00	!	!	!LO:N:vis=00	!	!	!	!LO:DY:b:t=for.	!	!	!	!	!
00.r	.	.	00.r	.	2r	.	f	2r	.	.	2r	.
.	.	.	.	.	(2d\	et	.	1f#X	et	.	(2a\	et
.	.	.	.	.	2c\)	.	.	.	.	.	2dd\)	.
=32	=32	=32	=32	=32	=32	=32	=32	=32	=32	=32	=32	=32
.	.	.	.	.	2.B-\	ger-	.	2.g\	ger-	.	2.dd\	ger-
.	.	.	.	.	4B-\	-mi-	.	4g\	-mi-	.	4dd\	-mi-
.	.	.	.	.	2A\	-net	.	2f#X\	-net	.	2cc\	-net
=33	=33	=33	=33	=33	=33	=33	=33	=33	=33	=33	=33	=33
.	.	.	.	.	2G/	Sal-	.	1g	Sal-	.	(2b-\	Sal-
.	.	.	.	.	2B-\	.	.	.	.	.	2dd\)	.
.	.	.	.	.	2G/	-va-	.	2g\	-va-	.	2b-\	-va-
=34	=34	=34	=34	=34	=34	=34	=34	=34	=34	=34	=34	=34
.	.	.	.	.	2c\	-to-	.	(1g	-to-	.	1.a	-to-
.	.	.	.	.	2d\	.	.	.	.	.	.	.
.	.	.	.	.	2D/	.	.	2f#X\)	.	.	.	.
=35	=35	=35	=35	=35	=35	=35	=35	=35	=35	=35	=35	=35
2r	.	.	2r	.	2G,</	-rem	.	2g,<\	-rem	.	2b-,<\	-rem
2G\	.	et	(2G\	et	1B-	et	.	1g	et	.	1dd	et
2Fn\	.	.	2F\)	.	.	.	.	.	.	.	.	.
=36	=36	=36	=36	=36	=36	=36	=36	=36	=36	=36	=36	=36
2.E-X\	.	ger-	2.E-X\	ger-	2.e-X\	ger-	.	2.g\	ger-	.	2.cc\	ger-
4E-\	.	-mi-	4E-\	-mi-	4e-\	-mi-	.	4g\	-mi-	.	4cc\	-mi-
2D\	.	-net	2D\	-net	2f\	-net	.	2fn\	-net	.	2bn\	-net
!	!	!	!LO:LB:g=original	!	!	!	!	!	!	!	!LO:LB:g=original	!
=37	=37	=37	=37	=37	=37	=37	=37	=37	=37	=37	=37	=37
2C/	.	Sal-	2C/	Sal-	(2e-X\	Sal-	.	1g	Sal-	.	1.cc	Sal-
2E-X\	.	-va-	2E-X\	-va-	2c\)	.	.	.	.	.	.	.
!	!	!	!	!	!	!	!	!LO:SIC:v:t=custos a-	!	!	!	!
2C/	.	.	2C/	-to-	2e-\	-va-	.	2g\	-va-	.	.	.
!LO:LB:g=original	!	!	!	!	!	!	!	!LO:LB:g=original	!	!	!	!
=38	=38	=38	=38	=38	=38	=38	=38	=38	=38	=38	=38	=38
*k[b-e-]	*	*	*	*	*	*	*	*	*	*	*	*
!LO:TX:t=P:problem:przy kluczu BB- B- E-	!	!	!	!	!	!	!	!	!	!	!	!
2F\	.	-to-	2F\	.	1.d	-to-	.	2a-X\	-to-	.	2cc\	-va-
2G\	.	.	2G\	.	.	.	.	1g	.	.	(2cc\	-to-
2GG/	.	.	2GG/	.	.	.	.	.	.	.	2bn\)	.
=39	=39	=39	=39	=39	=39	=39	=39	=39	=39	=39	=39	=39
2C,</	.	-rem	2C,</	-rem	2e-X,<\	-rem	.	2g,<\	-rem	.	2cc,<\	-rem
2c\	.	Sal-	2c\	Sal-	2e-\	Sal-	.	2g\	Sal-	.	2cc\	Sal-
2B-\	.	-va-	2B-\	-va-	2e-\	-va-	.	2g\	-va-	.	2cc\	-va-
=40	=40	=40	=40	=40	=40	=40	=40	=40	=40	=40	=40	=40
1.A-X	.	-to-	1.A-X	-to-	1e-	-to-	.	(1g	-to-	.	1.cc	-to-
.	.	.	.	.	2c\	.	.	2f#X\)	.	.	.	.
=41-	=41-	=41	=41	=41	=41-	=41	=41	=41-	=41	=41	=41-	=41
!LO:N:vis=0	!	!	!	!	!LO:N:vis=0.	!	!	!LO:N:vis=0.	!	!	!	!
1.G;	.	-rem.	1.G	-rem	1.d;<	-rem	.	1.g	-rem.	.	1.bn	-rem.
!	!	!	!	!	!LO:LB:g=original	!	!	!	!	!	!	!
=42||	=42||	=42||	=42||	=42||	=42||	=42||	=42||	=42||	=42||	=42||	=42||	=42||
*M2/2	*	*	*M2/2	*	*M2/2	*	*	*M2/2	*	*	*M2/2	*
*met(c|)	*	*	*met(c|)	*	*met(c|)	*	*	*met(c|)	*	*	*met(c|)	*
2r	.	.	2r	.	2r	.	.	2r	.	.	2r	.
2G\	.	Be-	2G\	Be-	2G/	Be-	.	2d\	Be-	.	2b-X\	Be-
=43	=43	=43	=43	=43	=43	=43	=43	=43	=43	=43	=43	=43
2G\	.	-ne-	2G\	-ne-	2A\	-ne-	.	2en\	-ne-	.	2cc\	-ne-
2F#X\	.	-di-	2F#X\	-di-	2A\	-di-	.	2f#X\	-di-	.	2dd\	-di-
=44	=44	=44	=44	=44	=44	=44	=44	=44	=44	=44	=44	=44
2G\	.	-xi-	2G\	-xi-	2B-\	-xi-	.	2d\	-xi-	.	2dd\	-xi-
2Fn\	.	-sti	2Fn\	-ſti	2A\	-sti	.	2fn\	-sti	.	2dd\	-sti
=45	=45	=45	=45	=45	=45	=45	=45	=45	=45	=45	=45	=45
2.E-\	.	Do-	2.E-X\	Do-	2.B-\	Do-	.	2.g\	Do-	.	2.dd\	Do-
!LO:SIC:v:t=custos D	!	!	!	!	!	!	!	!	!	!	!	!
4E-\	.	-mi-	4E-\	-mi-	4G/	-mi-	.	4g\	-mi-	.	4cc\	-mi-
!LO:LB:g=original	!	!	!	!	!	!	!	!	!	!	!	!
=46	=46	=46	=46	=46	=46	=46	=46	=46	=46	=46	=46	=46
*k[b-]	*	*	*	*	*	*	*	*	*	*	*	*
!LO:TX:t=P:problem:przy kluczu BB- B	!	!	!	!	!	!	!	!	!	!	!	!
2D,<\	.	-ne	2D,</	-ne	2A,<\	-ne	.	2fn,<\	-ne	.	2dd,<\	-ne
4BB-/	.	ter-	4BB-/	Ter-	(4B-\	ter-	.	(4f\	ter-	.	(4dd\	ter-
!	!	!	!LO:SIC:v:t=custos D	!	!	!	!	!	!	!	!	!
4C/	.	.	4C/	.	4A\)	.	.	4e-X\)	.	.	4cc\)	.
!	!	!	!LO:LB:g=original	!	!	!	!	!	!	!	!	!
=47	=47	=47	=47	=47	=47	=47	=47	=47	=47	=47	=47	=47
4D/	.	.	4D/	.	2B-\	-ram	.	(4f\	.	.	2b-\	.
4C/	.	.	4C/	.	.	.	.	4e-\)	.	.	.	.
4D/	.	.	4D/	.	2d,<\	.	.	2f\	-ram	.	2b-\	-ram
4BB-/	.	.	4BB-/	.	.	.	.	.	.	.	.	.
!	!	!	!	!	!	!	!	!	!	!	!LO:LB:g=original	!
=48	=48	=48	=48	=48	=48	=48	=48	=48	=48	=48	=48	=48
*	*	*	*	*	*	*ij	*	*	*ij	*	*	*ij
2F\	.	.	2F\	.	2A\	ter-	.	2f\	ter-	.	2cc\	ter-
2BB-/	.	-ram	2BB-/	-ram	2B-,<\	-ram	.	2f\	-ram	.	2dd\	-ram
*	*	*	*	*	*	*Xij	*	*	*Xij	*	*	*Xij
!	!	!	!	!	!	!	!	!LO:LB:g=original	!	!	!	!
=49	=49	=49	=49	=49	=49	=49	=49	=49	=49	=49	=49	=49
2C/	.	tu-	2C/	tu-	(2B-\	tu-	.	(2g\	tu-	.	1cc	tu-
2F\	.	.	2F\	.	2A\)	.	.	2f\)	.	.	.	.
=50	=50	=50	=50	=50	=50	=50	=50	=50	=50	=50	=50-	=50
2BB-,</	.	-am	2BB-,</	-am	2B-,<\	-am	.	2f,<\	-am	.	2dd,<\	-am
1B-	.	a-	1B-	a-	2B-\	a-	.	2f\	a-	.	2dd\	A-
=51-	=51-	=51	=51-	=51	=51	=51	=51	=51-	=51	=51	=51	=51
.	.	.	.	.	2G/	-ver-	.	(2en\	-ver-	.	1cc	-ver-
2A\	.	-ver-	2A\	-ver-	2A\	.	.	2f\)	.	.	.	.
=52	=52	=52	=52	=52	=52-	=52	=52	=52	=52	=52	=52	=52
2G\	.	-ti-	(2G\	-ti-	1B-	-ti-	.	(2f\	-ti-	.	(2dd\	-ti-
2c\	.	.	2c\)	.	.	.	.	2en\)	.	.	2g/)	.
=53	=53	=53	=53	=53	=53	=53	=53	=53	=53	=53	=53	=53
2F,<\	.	-sti	2F,<\	-sti	2A,</	-sti	.	2f,<\	-sti	.	2cc,<\	-sti
2BB-/	.	ca-	2BB-/	ca-	2F/	ca-	.	2d\	Ca-	.	2b-\	Ca-
=54	=54	=54	=54	=54	=54	=54	=54	=54	=54	=54	=54	=54
2E-X\	.	-pti-	2E-X\	-pti-	2B-\	-pti-	.	2B-/	-pti-	.	2g\	-pti-
2C/	.	-vi-	2C/	-vi-	2c\	-vi-	.	2e-X\	-vi-	.	2cc\	-vi-
!LO:LB:g=original	!	!	!	!	!LO:LB:g=original	!	!	!	!	!	!	!
=55	=55	=55	=55	=55	=55	=55	=55	=55	=55	=55	=55	=55
2F\	.	-ta-	2F\	-ta-	2c\	-ta-	.	2c\	-ta-	.	(2a\	-ta-
2D\	.	.	2D\	.	1d	.	.	2f\	.	.	2dd\)	.
=56	=56	=56	=56	=56	=56-	=56	=56	=56	=56	=56	=56	=56
2G\	.	.	2G\	.	.	.	.	2d\	.	.	2b-\	.
2C/	.	.	2C/	.	2e-X\	.	.	2g\	.	.	2ee-X\	.
=57	=57	=57	=57	=57	=57	=57	=57	=57-	=57	=57	=57	=57
2D/	.	.	2D/	.	2d\	.	.	2f#X\	.	.	2a\	.
2GG/	.	-tem	2GG/	-tem	2d\	-tem	.	2g\	-tem	.	2b-\	-tem
=58	=58	=58	=58	=58	=58-	=58	=58	=58	=58	=58	=58	=58
!	!	!	!	!	!	!	!	!	!	!	!LO:N:vis=1	!
0D	.	Ja-	0D	Ja-	0d	Ja-	.	2f#X\	Ja-	.	0a	Ja-
.	.	.	.	.	.	.	.	1g	.	.	.	.
=59-	=59-	=59	=59-	=59	=59-	=59	=59	=59-	=59	=59	=59-	=59
.	.	.	.	.	.	.	.	.	.	.	.	.
.	.	.	.	.	.	.	.	2f#X\	.	.	.	.
=60-	=60-	=60	=60-	=60	=60-	=60	=60	=60-	=60	=60	=60-	=60
!	!	!	!	!	!	!	!	!LO:N:vis=0.	!	!	!	!
0GG;	.	-cob.	0GG;	-cob.	0d;<	-cob.	.	0g	-cob.	.	0bn;	-cob.
!	!	!	!LO:LB:g=original	!	!	!	!	!LO:LB:g=original	!	!	!LO:LB:g=original	!
=61||	=61||	=61||	=61||	=61||	=61||	=61||	=61||	=61||	=61||	=61||	=61||	=61||
*M3/2	*	*	*M3/2	*	*M3/2	*	*	*M3/2	*	*	*M3/2	*
2.BB-/	.	Glo-	2.BB-/	Glo-	2.B-\	Glo-	.	2.f\	Glo-	.	2.dd\	Glo-
4BB-/	.	-ri-	4BB-/	-ri-	4B-\	-ri-	.	4f\	-ri-	.	4dd\	-ri-
2BB-/	.	-a	2BB-/	-a	2B-\	-a	.	2f\	-a	.	2dd\	-a
=62	=62	=62	=62	=62	=62	=62	=62	=62	=62	=62	=62	=62
2D\	.	Pa-	2D\	Pa-	2B-\	Pa-	.	2f\	Pa-	.	2dd\	Pa-
2E-X,<\	.	-tri	2E-X\	-tri	2B-\	-tri	.	2g\	-tri	.	2b-,<\	-tri
2BB-/	.	et	2BB-/	et	2B-\	et	.	2f\	et	.	2dd\	et
=63	=63	=63	=63	=63	=63	=63	=63	=63	=63	=63	=63	=63
2.F\	.	Fi-	2.F\	Fi-	2.A\	Fi-	.	2.f\	Fi-	.	2.cc\	Fi-
4F\	.	-li-	4F\	-li-	4A\	-li-	.	4f\	-li-	.	4cc\	-li-
!LO:SIC:v:t=custos F	!	!	!	!	!	!	!	!	!	!	!	!
2F,<\	.	-o	2F\	-o	2A\	-o	.	2f\	-o	.	2cc\	-o
!LO:LB:g=original	!	!	!	!	!	!	!	!	!	!	!	!
=64	=64	=64	=64	=64	=64	=64	=64	=64	=64	=64	=64	=64
2F\	.	Glo-	2F\	Glo-	1.r	.	.	2an\	Glo-	.	1.r	.
4F\	.	-ri-	4F\	-ri-	.	.	.	4a\	-ri-	.	.	.
4G,<\	.	-a	4G\	-a	.	.	.	4b-\	-a	.	.	.
4F\	.	et	4F\	et	.	.	.	4a\	et	.	.	.
4E-X\	.	Spi-	4E-X\	Spi-	.	.	.	4g\	Spi-	.	.	.
=65	=65	=65	=65	=65	=65	=65	=65	=65	=65	=65	=65	=65
2.D\	.	-ri-	2.D/	-ri-	2B-\	Glo-	.	2.f\	-ri-	.	2dd\	Glo-
.	.	.	.	.	4B-\	-ri-	.	.	.	.	4dd\	-ri-
4D\	.	-tu-	4D/	-tu-	4c\	-a	.	4f\	-tu-	.	4ee-X\	-a
2D\	.	-i	2D/	-i	4B-\	et	.	2f\	-i	.	4dd\	et
.	.	.	.	.	4An\	Spi-	.	.	.	.	4cc\	Spi-
=66	=66	=66	=66	=66	=66	=66	=66	=66	=66	=66	=66	=66
*	*	*ij	*	*ij	*	*	*	*	*ij	*	*	*
2G\	.	Glo-	2G\	Glo-	2.G/	-ri-	.	2b-X\	Glo-	.	2.b-\	-ri-
4G\	.	-ri-	4G\	-ri-	.	.	.	4b-\	-ri-	.	.	.
4A-X\	.	-a	4A-X\	-a	4G/	-tu-	.	4cc\	-a	.	4b-\	-tu-
4G\	.	et	4G\	et	2G/	-i	.	4b-\	et	.	2b-\	-i
4F\	.	Spi-	4F\	Spi-	.	.	.	4a\	Spi-	.	.	.
=67	=67	=67	=67	=67	=67	=67	=67	=67	=67	=67	=67	=67
*	*	*	*	*	*	*	*	*	*	*	*	*ij
2.E-X\	.	-ri-	2.E-X\	-ri-	2c\	Glo-	.	2.g\	-ri-	.	2ee-X\	Glo-
.	.	.	.	.	4c\	-ri-	.	.	.	.	4ee-\	-ri-
!	!	!	!	!	!LO:SIC:v:t=custos c	!	!	!	!	!	!	!
4E-\	.	-tu-	4E-\	-tu-	4d\	-a	.	4g\	-tu-	.	4ff\	-a
!	!	!	!	!	!LO:LB:g=original	!	!	!	!	!	!	!
2E-\	.	-i	2E-\	-i	4c\	et	.	2g\	-i	.	4ee-\	et
*	*	*Xij	*	*Xij	*	*	*	*	*Xij	*	*	*
.	.	.	.	.	4B-\	Spi-	.	.	.	.	4dd\	Spi-
=68	=68	=68	=68	=68	=68	=68	=68	=68	=68	=68	=68	=68
2F\	.	San-	(2F\	San-	2.An/	-ri-	.	1.f	San-	.	2.cc\	-ri-
2E-X\	.	.	2E-X\	.	.	.	.	.	.	.	.	.
.	.	.	.	.	4A/	-tu-	.	.	.	.	4cc\	-tu-
2D\	.	.	2D\)	.	2B-\	-i	.	.	.	.	2dd\	-i
*	*	*	*	*	*	*	*	*	*	*	*	*Xij
=69	=69	=69	=69	=69	=69	=69	=69	=69	=69	=69	=69	=69
!LO:SIC:v:s=2E-	!	!	!	!	!	!	!	!	!	!	!	!
2E\	.	.	2E-X\	.	1B-	San-	.	2g\	.	.	1.cc	San-
!	!	!	!	!	!	!	!	!LO:SIC:v:t=custos f	!	!	!	!
2F\	.	.	2F\	.	.	.	.	1f	.	.	.	.
2FF/	.	.	2FF/	.	2A\	.	.	.	.	.	.	.
!LO:LB:g=original	!	!	!	!	!	!	!	!LO:LB:g=original	!	!	!	!
=70	=70	=70	=70	=70	=70	=70	=70	=70	=70	=70	=70	=70
*k[b-e-]	*	*	*	*	*	*	*	*	*	*	*	*
!LO:TX:t=P:problem:przy kluczu BB- B- E-	!	!	!	!	!	!	!	!	!	!	!	!
2BB-,</	.	-cto.	2BB-,</	-cto	2B-,<\	-cto.	.	2f,<\	-cto.	.	2dd,<\	-cto
!	!	!	!LO:LB:g=original	!	!	!	!	!	!	!	!	!
!	!	!	!LO:TX:t=P:problem:skreślony dźwięk	!	!	!	!	!	!	!	!	!
2B-\	.	Si-	2B-\	Si-	2B-\	Si-	.	2f\	Si-	.	2dd\	Si-
2A\	.	-cut	2A\	-cut	2c\	-cut	.	2f\	-cut	.	2cc\	-cut
!	!	!	!	!	!	!	!	!	!	!	!LO:PB:g=original	!
=71	=71	=71	=71	=71	=71	=71	=71	=71	=71	=71	=71	=71
(2B-\	.	e-	1B-	e-	1B-	e-	.	1f	e-	.	1dd	e-
2BB-/)	.	.	.	.	.	.	.	.	.	.	.	.
2F\	.	-rat	2F\	-rat	2A\	-rat	.	2f\	-rat	.	2cc\	-rat
=72	=72	=72	=72	=72	=72	=72	=72	=72	=72	=72	=72	=72
1G	.	in	1G	in	1d	in	.	1d	in	.	1b-	in
2F#X\	.	prin-	2F#X\	prin-	2d\	prin-	.	2f#X\	prin-	.	2a\	prin-
=73	=73	=73	=73	=73	=73	=73	=73	=73	=73	=73	=73	=73
2.G\	.	-ci-	2.G\	-ci-	2.d\	-ci-	.	2.d\	-ci-	.	2.b-\	-ci-
4G\	.	-pi-	4G\	-pi-	4d\	-pi-	.	4d\	-pi-	.	4b-\	-pi-
2D\	.	-o	2D/	-o	2d\	-o	.	2f#X\	-o	.	2a\	-o
=74	=74	=74	=74	=74	=74	=74	=74	=74	=74	=74	=74	=74
1E-X	.	et	1E-X	et	1B-	et	.	1g	et	.	(2g\	et
.	.	.	.	.	.	.	.	.	.	.	2b-\)	.
2C,</	.	nunc	2C/	nunc	2e-X\	nunc	.	2g\	nunc	.	2cc\	nunc
=75	=75	=75	=75	=75	=75	=75	=75	=75	=75	=75	=75	=75
2F\	.	et	2F\	et	2d\	et	.	2a-X\	et	.	2cc\	et
2G\	.	sem-	2G\	sem-	1d	sem-	.	1g	sem-	.	(2cc\	sem-
!LO:SIC:v:t=custos C	!	!	!	!	!	!	!	!	!	!	!	!
2GG/	.	.	2GG/	.	.	.	.	.	.	.	2bn\)	.
!LO:PB:g=original	!	!	!	!	!	!	!	!	!	!	!	!
=76	=76	=76	=76	=76	=76	=76	=76	=76	=76	=76	=76	=76
2C,</	.	-per	2C,</	-per	2e-X\	-per	.	2g,<\	-per	.	2cc,<\	-per
2F\	.	et	2F\	et	2An/	et	.	2fn\	et	.	2cc\	et
!	!	!	!	!	!LO:SIC:v:t=custos b-	!	!	!	!	!	!	!
2F\	.	in	2F\	in	2A/	in	.	2f\	in	.	2cc\	in
!	!	!	!	!	!LO:PB:g=original	!	!	!	!	!	!	!
=77	=77	=77	=77	=77	=77	=77	=77	=77	=77	=77	=77	=77
2.F\	6_ 4	sae-	2.F\	sae-	2.B-\	sae-	.	2.d\	sae-	.	2.dd\	sae-
4F\	.	-cu-	4F\	-cu-	4B-\	-cu-	.	4f\	-cu-	.	4dd\	-cu-
!	!	!	!	!	!	!	!	!LO:SIC:v:t=custos f	!	!	!	!
2F\	X X	-la	2F\	-la	2A\	-la	.	2f\	-la	.	2cc\	-la
!	!	!	!LO:PB:g=original	!	!	!	!	!LO:PB:g=original	!	!	!	!
=78	=78	=78	=78	=78	=78	=78	=78	=78	=78	=78	=78	=78
2r	.	.	2r	.	2r	.	.	2r	.	.	2r	.
*	*	*ij	*	*	*	*	*	*	*	*	*	*ij
2B-\	.	et	2B-\	et	2d\	et	.	2f\	et	.	2dd\	et
2B-\	.	in	2B-\	in	2B-\	in	.	2f\	in	.	2dd\	in
=79	=79	=79	=79	=79	=79	=79	=79	=79	=79	=79	=79	=79
2.B-\	6_ 4	sae-	2.B-\	sae-	2.e-X\	sae-	.	2.g\	sae-	.	2.ee-X\	sae-
4B-\	.	-cu-	4B-\	-cu-	4e-\	-cu-	.	4g\	-cu-	.	4ee-\	-cu-
2B-\	X X	-la	2B-\	-la	2B-\	-la	.	2f\	-la	.	2dd\	-la
*	*	*Xij	*	*	*	*	*	*	*	*	*	*Xij
!	!	!	!	!	!	!	!	!	!	!	!LO:LB:g=original	!
=80	=80	=80	=80	=80	=80	=80	=80	=80	=80	=80	=80	=80
2.A\	.	sae-	2.An\	sae-	2.c\	sae-	.	2.f\	sae-	.	2.cc\	sae-
4A\	.	-cu-	4A\	-cu-	4c\	-cu-	.	4f\	-cu-	.	4cc\	-cu-
2B-\	.	-lo-	2B-\	-lo-	2B-\	-lo-	.	2f\	-lo-	.	2dd\	-lo-
=81	=81	=81	=81	=81	=81	=81	=81	=81	=81	=81	=81	=81
2G\	.	-rum	2G,<\	-rum	2B-,<\	-rum	.	2en,<\	-rum	.	2dd,<\	-rum
2A\	.	A-	2A\	A-	1A	a-	.	1e	a-	.	2dd\	A-
2AA/	.	.	2AA/	.	.	.	.	.	.	.	2cc#X\	.
=82	=82	=82	=82	=82	=82	=82	=82	=82	=82	=82	=82	=82
2D,<\	.	-men	2D,</	-men	2A,</	-men	.	2f#X,<\	-men	.	2dd,<\	-men
2G\	.	et	2G\	et	2B-\	et	.	2g\	et	.	2dd\	et
!LO:SIC:v:t=custos G	!	!	!	!	!	!	!	!	!	!	!	!
2D\	.	in	2D\	in	2A\	in	.	2f#X\	in	.	2dd\	in
!LO:LB:g=original	!	!	!	!	!	!	!	!	!	!	!	!
=83	=83	=83	=83	=83	=83	=83	=83	=83	=83	=83	=83	=83
*k[b-]	*	*	*	*	*	*	*	*	*	*	*	*
!LO:TX:t=P:problem:przy kluczu B- BB-	!	!	!	!	!	!	!	!	!	!	!	!
2.G\	.	sae-	2.G\	sae-	2.B-\	sae-	.	2.g\	sae-	.	2.dd\	sae-
4G\	.	-cu-	4G\	-cu-	4B-\	-cu-	.	4g\	-cu-	.	4dd\	-cu-
2Fn\	.	-la	2Fn\	-la	2A\	-la	.	2an\	-la	.	2dd\	-la
=84	=84	=84	=84	=84	=84	=84	=84	=84	=84	=84	=84	=84
2.F\	.	sae-	2.F\	sae-	2.B-\	sae-	.	2.g\	sae-	.	2.dd\	sae-
4F\	.	-cu-	4F\	-cu-	4B-\	-cu-	.	4g\	-cu-	.	4dd\	-cu-
2E-X\	.	-lo-	2E-X\	-lo-	2c\	-lo-	.	2g\	-lo-	.	2ee-X\	-lo-
=85	=85	=85	=85	=85	=85	=85	=85	=85	=85	=85	=85	=85
2C,</	.	-rum	2C,</	-rum	2c\	-rum	.	2g,<\	-rum	.	2ee-\	-rum
1D	.	A-	1D	A-	1A	A-	.	2g\	a-	.	1dd	A-
.	.	.	.	.	.	.	.	2f#X\	.	.	.	.
=86	=86	=86	=86	=86	=86-	=86	=86	=86	=86	=86	=86	=86
!LO:TX:b:t=Si placet da Capo	!	!	!	!	!	!	!	!	!	!	!	!
0.GG	.	-men.	0.GG	-men	0.Bn;	-men	.	0.g;	-men.	.	0.dd;<	-men.
==	==	==	==	==	==	==	==	==	==	==	==	==
*-	*-	*-	*-	*-	*-	*-	*-	*-	*-	*-	*-	*-
!!!system-decoration: [s1,s2,s3,s4]s5
!!!RDF**kern: < = below
!!!ENC: Marta Lawrence
!!!END: 2021-03-02
!!!ENC: Andrzej Kubiczek
!!!END: 2021-02-16
